static/icons/CannonShogi.svg

<svg height="50" viewBox="0 0 13.229166 13.229167" width="50" xmlns="http://www.w3.org/2000/svg"><path d="m25 1.7617187-15.7265625 5.4960938-4.3085938 40.9804685h40.0703123l-4.308594-40.9804685zm11.925781 13.6347653c.039659-.011338.449855.261182.732422.486328.533419.425046 1.331689 1.29848 1.568359 1.716797.053065.093733.213423.359734.357422.591797.447333.72102.565973.94007.722657 1.335938.097625.246425.205516.628158.189453.669922-.00567.011338-.167564.138635-.359375.277343-1.087146.786557-2.256848 1.575586-4.447266 2.998047-2.789472 1.811413-4.08344 2.667095-5.302734 3.507813-.342119.235842-.636654.432889-.654297.4375-.01697.003099-.124963-.027416-.240235-.076172-.674431-.268724-1.479709-.456376-2.21875-.519531-.512552-.043843-1.222275-.023298-1.748046.050781-2.510003.355653-4.687034 1.910335-5.845704 4.175781-.341699.668107-.610204 1.465925-.732421 2.179688-.085928.501807-.10882.796349-.109375 1.345703-.000887.539791.01431.758183.089843 1.248047l.041016.271484-.146484.142578c-.209231.202583-.238558.223163-.353516.238281l-.103516.011719-.357422.474609c-1.776079 2.356042-2.847163 3.497079-3.980468 4.238282-.940962.615382-1.934703.905757-3.302735.966797-.488525.022677-.531536.02216-1.1484371-.001954-.7189641-.026456-2.5165844-.168667-2.5527344-.201171-.0231685-.022678-.0737741-.485588-.0546875-.501954.0074079-.007559.1000943-.042597.2050781-.078125 2.1351732-.730015 3.9485089-2.274459 5.7148439-4.86914.264672-.388762.674457-1.022784.666015-1.03125-.003706-.003062-.042695.006366-.085937.021484-.265844.093732-.691708.096632-.957031.007813-.598412-.203717-.910353-.755014-.759766-1.34375.068753-.268724.228439-.528162.443359-.722657l.121094-.109375-.0625-.138671c-.256546-.563338-.382044-1.151559-.384765-1.796875-.001887-.551131.067729-.985626.248046-1.533204.175654-.533479.530373-1.199314.695313-1.304687.04213-.026457 1.071704-.592893 2.287109-1.255859 2.051695-1.119193 6.580853-3.592432 17.435547-9.521485 2.397665-1.30968 4.37378-2.384287 4.390625-2.388672zm-10.515625 11.894532c.741194-.020971 1.491168.071538 2.228516.283203 2.496255.716597 4.425534 2.714114 5.060547 5.240234.152798.607521.203125 1.046029.203125 1.767578 0 .613795-.017169.818539-.103516 1.296875-.167161.918236-.498896 1.78029-.986328 2.5625-1.407769 2.259286-3.936005 3.57142-6.605469 3.429688-.47423-.026457-1.160515-.146133-1.638672-.28711-1.871326-.552642-3.422075-1.804838-4.363281-3.52539-.38076-.696-.676678-1.578579-.796875-2.375-.123333-.817398-.101957-1.744581.058594-2.53711.231435-1.142474.747354-2.238971 1.484375-3.154297.196656-.244157.703889-.764364.9375-.960937 1.304365-1.0976 2.890858-1.694099 4.521484-1.740234zm.851563 2.115234v1.871094c0 1.028862.004111 1.871093.007812 1.871093.003707 0 .580756-.593257 1.28125-1.318359v-.003906c.700513-.725102 1.275822-1.324914 1.279297-1.333985.018822-.046866-.631572-.464042-.970703-.623046-.486808-.228284-1.047318-.399053-1.480469-.451172zm-1.328125.013672c-.019162-.018898-.434518.059426-.689453.130859-.670163.187087-1.352118.53366-1.865235.949219l-.058594.044922 1.3125 1.271484 1.314454 1.269531.005859-.175781c.003706-.097134.003706-.920283 0-1.828125-.003707-.907879-.011783-1.654928-.019531-1.662109zm4.824218 2.017578c-.009562 0-.487885.490449-1.066406 1.089844-.578505.599432-1.146603 1.185897-1.261719 1.304687l-.208984.216797h1.783203 1.783203l-.013672-.125c-.053465-.495042-.231202-1.105502-.470703-1.613281-.144302-.306142-.498986-.873047-.544922-.873047zm-8.332031.056641-.11914.177734c-.338094.504377-.577837 1.049827-.728516 1.662109-.052694.214299-.121094.611812-.121094.703125 0 .030237.153938.033203 1.8125.033203h1.8125l-.128906-.128906c-.071781-.070299-.569593-.549443-1.105469-1.066406-.535875-.517001-1.076115-1.038909-1.199219-1.160156zm7.845703 3.863281c-.809339.001436-1.579673.008066-1.710937.015625l-.238281.009765 1.199218 1.160157c.659226.638097 1.204978 1.160307 1.212891 1.160156.007357-.000225.069832-.078357.136719-.173828.325144-.465248.573955-.982189.730468-1.519531.05816-.199559.140625-.568257.140625-.626954 0-.026456-.226548-.02539-1.470703-.02539zm-5.15039.017578-1.806641.007812-1.806641.007813.00586.080078c.009562.103937.128482.567226.197265.767578.147704.429808.355145.844998.625 1.242188.131641.193511.31709.43164.335938.43164.003707 0 .493237-.505144 1.087891-1.121093v-.003907c.594653-.615949 1.143871-1.185461 1.220703-1.265625zm2.171875.832031-.00586 1.296875c-.003706.713272.000405 1.498283.007813 1.744141.011414.395338.017391.447417.046875.447265.018822-.000264.163683-.027665.324219-.060546.689408-.139843 1.372706-.437125 1.951171-.847657l.195313-.136718-.246094-.240235c-.134853-.131149-.701772-.680269-1.259765-1.220703zm-1.31836.164063-.125.130859c-.068568.073323-.589161.614918-1.158203 1.203125-.56902.588207-1.037803 1.077471-1.041015 1.085938-.009563.026456.365335.25703.613281.382812.268932.136441.664038.292794.9375.369141.243855.068409.622566.148501.710937.15039l.064453.001953v-1.662109z" fill="#8d6c46" transform="scale(.26458333)"/></svg>

<?xml version="1.0" encoding="UTF-8" standalone="no"?>
<svg
   width="50"
   height="50"
   viewBox="0 0 13.229166 13.229167"
   version="1.1"
   id="svg1579"
   inkscape:version="1.3 (0e150ed6c4, 2023-07-21)"
   sodipodi:docname="CannonShogi.svg"
   xmlns:inkscape="http://www.inkscape.org/namespaces/inkscape"
   xmlns:sodipodi="http://sodipodi.sourceforge.net/DTD/sodipodi-0.dtd"
   xmlns="http://www.w3.org/2000/svg"
   xmlns:svg="http://www.w3.org/2000/svg"
   xmlns:rdf="http://www.w3.org/1999/02/22-rdf-syntax-ns#"
   xmlns:cc="http://creativecommons.org/ns#"
   xmlns:dc="http://purl.org/dc/elements/1.1/">
  <defs
     id="defs1573">
    <inkscape:path-effect
       effect="mirror_symmetry"
       start_point="-15.691712,-45.362002"
       end_point="-15.691712,4.437998"
       center_point="-15.691712,-20.462002"
       id="path-effect7365"
       is_visible="true"
       mode="free"
       discard_orig_path="false"
       fuse_paths="true"
       oposite_fuse="false" />
  </defs>
  <sodipodi:namedview
     id="base"
     pagecolor="#ffffff"
     bordercolor="#666666"
     borderopacity="1.0"
     inkscape:pageopacity="0.0"
     inkscape:pageshadow="2"
     inkscape:zoom="5.6"
     inkscape:cx="24.375"
     inkscape:cy="4.375"
     inkscape:document-units="px"
     inkscape:current-layer="layer1"
     showgrid="false"
     units="px"
     showguides="true"
     inkscape:window-width="3840"
     inkscape:window-height="2036"
     inkscape:window-x="-12"
     inkscape:window-y="-12"
     inkscape:window-maximized="1"
     inkscape:document-rotation="0"
     inkscape:showpageshadow="2"
     inkscape:pagecheckerboard="0"
     inkscape:deskcolor="#d1d1d1" />
  <metadata
     id="metadata1576">
    <rdf:RDF>
      <cc:Work
         rdf:about="">
        <dc:format>image/svg+xml</dc:format>
        <dc:type
           rdf:resource="http://purl.org/dc/dcmitype/StillImage" />
      </cc:Work>
    </rdf:RDF>
  </metadata>
  <g
     inkscape:label="Layer 1"
     inkscape:groupmode="layer"
     id="layer1"
     transform="translate(0,-283.77082)">
    <path
       id="path3112"
       style="fill:#8d6c46;fill-opacity:1;fill-rule:nonzero;stroke:none;stroke-width:0.934067;stroke-opacity:0.487437"
       d="M 25 1.7617187 L 9.2734375 7.2578125 L 4.9648437 48.238281 L 45.035156 48.238281 L 40.726562 7.2578125 L 25 1.7617187 z M 36.925781 15.396484 C 36.96544 15.385146 37.375636 15.657666 37.658203 15.882812 C 38.191622 16.307858 38.989892 17.181292 39.226562 17.599609 C 39.279627 17.693342 39.439985 17.959343 39.583984 18.191406 C 40.031317 18.912426 40.149957 19.131476 40.306641 19.527344 C 40.404266 19.773769 40.512157 20.155502 40.496094 20.197266 C 40.490424 20.208604 40.32853 20.335901 40.136719 20.474609 C 39.049573 21.261166 37.879871 22.050195 35.689453 23.472656 C 32.899981 25.284069 31.606013 26.139751 30.386719 26.980469 C 30.0446 27.216311 29.750065 27.413358 29.732422 27.417969 C 29.715452 27.421068 29.607459 27.390553 29.492187 27.341797 C 28.817756 27.073073 28.012478 26.885421 27.273437 26.822266 C 26.760885 26.778423 26.051162 26.798968 25.525391 26.873047 C 23.015388 27.2287 20.838357 28.783382 19.679687 31.048828 C 19.337988 31.716935 19.069483 32.514753 18.947266 33.228516 C 18.861338 33.730323 18.838446 34.024865 18.837891 34.574219 C 18.837004 35.11401 18.852201 35.332402 18.927734 35.822266 L 18.96875 36.09375 L 18.822266 36.236328 C 18.613035 36.438911 18.583708 36.459491 18.46875 36.474609 L 18.365234 36.486328 L 18.007812 36.960937 C 16.231733 39.316979 15.160649 40.458016 14.027344 41.199219 C 13.086382 41.814601 12.092641 42.104976 10.724609 42.166016 C 10.236084 42.188693 10.193073 42.188176 9.5761719 42.164062 C 8.8572078 42.137606 7.0595875 41.995395 7.0234375 41.962891 C 7.000269 41.940213 6.9496634 41.477303 6.96875 41.460937 C 6.9761579 41.453378 7.0688443 41.41834 7.1738281 41.382812 C 9.3090013 40.652797 11.122337 39.108353 12.888672 36.513672 C 13.153344 36.12491 13.563129 35.490888 13.554687 35.482422 C 13.550981 35.47936 13.511992 35.488788 13.46875 35.503906 C 13.202906 35.597638 12.777042 35.600538 12.511719 35.511719 C 11.913307 35.308002 11.601366 34.756705 11.751953 34.167969 C 11.820706 33.899245 11.980392 33.639807 12.195312 33.445312 L 12.316406 33.335937 L 12.253906 33.197266 C 11.99736 32.633928 11.871862 32.045707 11.869141 31.400391 C 11.867254 30.84926 11.93687 30.414765 12.117187 29.867187 C 12.292841 29.333708 12.64756 28.667873 12.8125 28.5625 C 12.85463 28.536043 13.884204 27.969607 15.099609 27.306641 C 17.151304 26.187448 21.680462 23.714209 32.535156 17.785156 C 34.932821 16.475476 36.908936 15.400869 36.925781 15.396484 z M 26.410156 27.291016 C 27.15135 27.270045 27.901324 27.362554 28.638672 27.574219 C 31.134927 28.290816 33.064206 30.288333 33.699219 32.814453 C 33.852017 33.421974 33.902344 33.860482 33.902344 34.582031 C 33.902344 35.195826 33.885175 35.40057 33.798828 35.878906 C 33.631667 36.797142 33.299932 37.659196 32.8125 38.441406 C 31.404731 40.700692 28.876495 42.012826 26.207031 41.871094 C 25.732801 41.844637 25.046516 41.724961 24.568359 41.583984 C 22.697033 41.031342 21.146284 39.779146 20.205078 38.058594 C 19.824318 37.362594 19.5284 36.480015 19.408203 35.683594 C 19.28487 34.866196 19.306246 33.939013 19.466797 33.146484 C 19.698232 32.00401 20.214151 30.907513 20.951172 29.992187 C 21.147828 29.74803 21.655061 29.227823 21.888672 29.03125 C 23.193037 27.93365 24.77953 27.337151 26.410156 27.291016 z M 27.261719 29.40625 L 27.261719 31.277344 C 27.261719 32.306206 27.26583 33.148437 27.269531 33.148437 C 27.273238 33.148437 27.850287 32.55518 28.550781 31.830078 L 28.550781 31.826172 C 29.251294 31.10107 29.826603 30.501258 29.830078 30.492187 C 29.8489 30.445321 29.198506 30.028145 28.859375 29.869141 C 28.372567 29.640857 27.812057 29.470088 27.378906 29.417969 L 27.261719 29.40625 z M 25.933594 29.419922 C 25.914432 29.401024 25.499076 29.479348 25.244141 29.550781 C 24.573978 29.737868 23.892023 30.084441 23.378906 30.5 L 23.320312 30.544922 L 24.632812 31.816406 L 25.947266 33.085937 L 25.953125 32.910156 C 25.956831 32.813022 25.956831 31.989873 25.953125 31.082031 C 25.949418 30.174152 25.941342 29.427103 25.933594 29.419922 z M 30.757812 31.4375 C 30.74825 31.4375 30.269927 31.927949 29.691406 32.527344 C 29.112901 33.126776 28.544803 33.713241 28.429687 33.832031 L 28.220703 34.048828 L 30.003906 34.048828 L 31.787109 34.048828 L 31.773437 33.923828 C 31.719972 33.428786 31.542235 32.818326 31.302734 32.310547 C 31.158432 32.004405 30.803748 31.4375 30.757812 31.4375 z M 22.425781 31.494141 L 22.306641 31.671875 C 21.968547 32.176252 21.728804 32.721702 21.578125 33.333984 C 21.525431 33.548283 21.457031 33.945796 21.457031 34.037109 C 21.457031 34.067346 21.610969 34.070312 23.269531 34.070312 L 25.082031 34.070312 L 24.953125 33.941406 C 24.881344 33.871107 24.383532 33.391963 23.847656 32.875 C 23.311781 32.357999 22.771541 31.836091 22.648437 31.714844 L 22.425781 31.494141 z M 30.271484 35.357422 C 29.462145 35.358858 28.691811 35.365488 28.560547 35.373047 L 28.322266 35.382812 L 29.521484 36.542969 C 30.18071 37.181066 30.726462 37.703276 30.734375 37.703125 C 30.741732 37.7029 30.804207 37.624768 30.871094 37.529297 C 31.196238 37.064049 31.445049 36.547108 31.601562 36.009766 C 31.659722 35.810207 31.742187 35.441509 31.742187 35.382812 C 31.742187 35.356356 31.515639 35.357422 30.271484 35.357422 z M 25.121094 35.375 L 23.314453 35.382812 L 21.507812 35.390625 L 21.513672 35.470703 C 21.523234 35.57464 21.642154 36.037929 21.710937 36.238281 C 21.858641 36.668089 22.066082 37.083279 22.335937 37.480469 C 22.467578 37.67398 22.653027 37.912109 22.671875 37.912109 C 22.675582 37.912109 23.165112 37.406965 23.759766 36.791016 L 23.759766 36.787109 C 24.354419 36.17116 24.903637 35.601648 24.980469 35.521484 L 25.121094 35.375 z M 27.292969 36.207031 L 27.287109 37.503906 C 27.283403 38.217178 27.287514 39.002189 27.294922 39.248047 C 27.306336 39.643385 27.312313 39.695464 27.341797 39.695312 C 27.360619 39.695048 27.50548 39.667647 27.666016 39.634766 C 28.355424 39.494923 29.038722 39.197641 29.617187 38.787109 L 29.8125 38.650391 L 29.566406 38.410156 C 29.431553 38.279007 28.864634 37.729887 28.306641 37.189453 L 27.292969 36.207031 z M 25.974609 36.371094 L 25.849609 36.501953 C 25.781041 36.575276 25.260448 37.116871 24.691406 37.705078 C 24.122386 38.293285 23.653603 38.782549 23.650391 38.791016 C 23.640828 38.817472 24.015726 39.048046 24.263672 39.173828 C 24.532604 39.310269 24.92771 39.466622 25.201172 39.542969 C 25.445027 39.611378 25.823738 39.69147 25.912109 39.693359 L 25.976562 39.695312 L 25.976562 38.033203 L 25.974609 36.371094 z "
       transform="matrix(0.26458333,0,0,0.26458333,0,283.77082)" />
  </g>
</svg>
